assets/exchange_rate.svg

<svg fill="none" height="14" viewBox="0 0 22 14" width="22" xmlns="http://www.w3.org/2000/svg"><path clip-rule="evenodd" d="m14.5356.505935c-1.2511-.002554-2.4779.346389-3.5404 1.007075-4.35556-2.79294-10.354566.53783-10.280155 5.73644-.074611 5.19765 5.925575 8.53005 10.280155 5.73625 4.3784 2.7966 10.3595-.5397 10.29-5.73643-.0029-1.78865-.7151-3.50313-1.9804-4.76732-1.2654-1.26418-2.9805-1.974819-4.7692-1.976015zm-12.53498 6.743415c.00229-1.44797.57885-2.83591 1.60319-3.85932 1.02434-1.0234 2.41281-1.59868 3.86079-1.59963 7.2487.29977 7.2466 10.6192-.00004 10.9179-1.44797-.0009-2.83643-.5762-3.86077-1.5996-1.02433-1.0234-1.60089-2.41138-1.60317-3.85935zm12.53498 5.45895c-.8448.0021-1.6784-.1937-2.4341-.5716 1.1847-1.1164 1.9238-2.62483 2.0802-4.24512h2.2306l-.4501.56211c-.1035.13338-.1503.30212-.1304.46975.02.16763.1051.32069.2369.42609.1319.10541.2999.1547.4678.13723.1679-.01748.3222-.10032.4295-.23062l1.2856-1.60555c.0895-.1146.1381-.25583.1381-.40124 0-.1454-.0486-.28664-.1381-.40123l-1.2856-1.60558c-.1073-.13033-.2616-.21319-.4295-.23068-.168-.01748-.336.03182-.4679.13724-.1318.10543-.2169.25851-.2368.42616s.0269.33641.1304.46978l.4501.56209h-2.2306c-.1564-1.6203-.8955-3.12876-2.0802-4.24516 3.525-1.832538 7.9663.90862 7.8981 4.88746-.0023 1.44796-.5789 2.83587-1.6032 3.85927s-2.4128 1.5987-3.8608 1.5996zm-5.85664-7.38557c.16885-.00225.33002-.07091.44862-.19111s.18509-.28227.18509-.45113c-.00001-.16886-.06651-.33093-.18511-.45112-.11861-.12019-.27978-.18884-.44862-.19109h-.96421v-.32112c-.00255-.1688-.0714-.32983-.19168-.4483-.12027-.11847-.28233-.18488-.45115-.18487-.16883 0-.33088.06641-.45115.18489-.12027.11847-.18911.2795-.19166.44831v.3501c-.47355.08347-.89877.34097-1.19216.72194-.29338.38097-.43372.85787-.39345 1.33703.04028.47916.25825.92594.61112 1.25259.35286.32665.8151.50957 1.29594.51282h.64278c.08447-.0002.16814.01626.24624.04845.07809.03218.14907.07946.20887.13911.05979.05966.10724.13053.13961.20854.03237.07802.04903.16166.04903.24613 0 .08446-.01666.1681-.04903.24612s-.07982.14888-.13961.20854c-.0598.05965-.13078.10693-.20887.13911-.0781.03219-.16177.04865-.24624.04846h-1.92847c-.1688.00232-.3299.07101-.44844.1912-.11855.12019-.18501.28222-.18501.45104.00001.16881.06648.33083.18503.45103s.27965.1889.44845.1912h.9642v.3211c.00255.1688.0714.3298.19168.4483s.28233.1849.45115.1849c.16883 0 .33088-.0664.45115-.1849s.18912-.2795.19166-.4483v-.3501c.47353-.0835.89873-.341 1.1921-.72199.29337-.38097.43369-.85785.39342-1.337-.04027-.47914-.25824-.92591-.61108-1.25256s-.81507-.50958-1.29589-.51285h-.64277c-.16882-.00228-.32996-.07095-.44854-.19115-.11857-.12019-.18505-.28224-.18505-.45108s.06648-.33089.18505-.45108c.11858-.1202.27972-.18887.44854-.19116zm3.12954 1.47816c.1203.11852.1891.27961.1916.44846-.0025.16884-.0713.32994-.1916.44846-.1203.11853-.2824.18497-.4512.18498-.1689 0-.331-.06644-.4513-.18496s-.1891-.27961-.1916-.44845c.0025-.16885.0713-.32994.1916-.44847s.2824-.18497.4512-.18498c.1689 0 .331.06644.4513.18496z" fill="#fff" fill-rule="evenodd"/></svg>

<svg width="22" height="14" viewBox="0 0 22 14" fill="none" xmlns="http://www.w3.org/2000/svg">
<path fill-rule="evenodd" clip-rule="evenodd" d="M14.5356 0.505935C13.2845 0.503381 12.0577 0.852324 10.9952 1.51301C6.63964 -1.27993 0.640634 2.05084 0.715045 7.24945C0.640434 12.4471 6.64062 15.7795 10.9952 12.9857C15.3736 15.7823 21.3547 12.446 21.2852 7.24927C21.2823 5.46062 20.5701 3.74614 19.3048 2.48195C18.0394 1.21777 16.3243 0.507131 14.5356 0.505935ZM2.00062 7.24935C2.00291 5.80138 2.57947 4.41344 3.60381 3.39003C4.62815 2.36663 6.01662 1.79135 7.4646 1.7904C14.7133 2.09017 14.7112 12.4096 7.46456 12.7083C6.01659 12.7074 4.62813 12.1321 3.60379 11.1087C2.57946 10.0853 2.0029 8.69732 2.00062 7.24935ZM14.5356 12.7083C13.6908 12.7104 12.8572 12.5146 12.1015 12.1367C13.2862 11.0203 14.0253 9.51187 14.1817 7.89158H16.4123L15.9622 8.45369C15.8587 8.58707 15.8119 8.75581 15.8318 8.92344C15.8518 9.09107 15.9369 9.24413 16.0687 9.34953C16.2006 9.45494 16.3686 9.50423 16.5365 9.48676C16.7044 9.46928 16.8587 9.38644 16.966 9.25614L18.2516 7.65059C18.3411 7.53599 18.3897 7.39476 18.3897 7.24935C18.3897 7.10395 18.3411 6.96271 18.2516 6.84812L16.966 5.24254C16.8587 5.11221 16.7044 5.02935 16.5365 5.01186C16.3685 4.99438 16.2005 5.04368 16.0686 5.1491C15.9368 5.25453 15.8517 5.40761 15.8318 5.57526C15.8119 5.74291 15.8587 5.91167 15.9622 6.04504L16.4123 6.60713H14.1817C14.0253 4.98683 13.2862 3.47837 12.1015 2.36197C15.6265 0.529432 20.0678 3.27059 19.9996 7.24943C19.9973 8.69739 19.4207 10.0853 18.3964 11.1087C17.3721 12.1321 15.9836 12.7074 14.5356 12.7083ZM8.67896 5.32273C8.84781 5.32048 9.00898 5.25182 9.12758 5.13162C9.24618 5.01142 9.31267 4.84935 9.31267 4.68049C9.31266 4.51163 9.24616 4.34956 9.12756 4.22937C9.00895 4.10918 8.84778 4.04053 8.67894 4.03828H7.71473V3.71716C7.71218 3.54836 7.64333 3.38733 7.52305 3.26886C7.40278 3.15039 7.24072 3.08398 7.0719 3.08399C6.90307 3.08399 6.74102 3.1504 6.62075 3.26888C6.50048 3.38735 6.43164 3.54838 6.42909 3.71719V4.06729C5.95554 4.15076 5.53032 4.40826 5.23693 4.78923C4.94355 5.1702 4.80321 5.6471 4.84348 6.12626C4.88376 6.60542 5.10173 7.0522 5.4546 7.37885C5.80746 7.7055 6.2697 7.88842 6.75054 7.89167H7.39332C7.47779 7.89147 7.56146 7.90793 7.63956 7.94012C7.71765 7.9723 7.78863 8.01958 7.84843 8.07923C7.90822 8.13889 7.95567 8.20976 7.98804 8.28777C8.02041 8.36579 8.03707 8.44943 8.03707 8.5339C8.03707 8.61836 8.02041 8.702 7.98804 8.78002C7.95567 8.85804 7.90822 8.9289 7.84843 8.98856C7.78863 9.04821 7.71765 9.09549 7.63956 9.12767C7.56146 9.15986 7.47779 9.17632 7.39332 9.17613H5.46485C5.29605 9.17845 5.13495 9.24714 5.01641 9.36733C4.89786 9.48752 4.8314 9.64955 4.8314 9.81837C4.83141 9.98718 4.89788 10.1492 5.01643 10.2694C5.13498 10.3896 5.29608 10.4583 5.46488 10.4606H6.42908V10.7817C6.43163 10.9505 6.50048 11.1115 6.62076 11.23C6.74104 11.3485 6.90309 11.4149 7.07191 11.4149C7.24074 11.4149 7.40279 11.3485 7.52306 11.23C7.64333 11.1115 7.71218 10.9505 7.71472 10.7817V10.4316C8.18825 10.3481 8.61345 10.0906 8.90682 9.70961C9.20019 9.32864 9.34051 8.85176 9.30024 8.37261C9.25997 7.89347 9.042 7.4467 8.68916 7.12005C8.33632 6.7934 7.87409 6.61047 7.39327 6.6072H6.7505C6.58168 6.60492 6.42054 6.53625 6.30196 6.41605C6.18339 6.29586 6.11691 6.13381 6.11691 5.96497C6.11691 5.79613 6.18339 5.63408 6.30196 5.51389C6.42054 5.39369 6.58168 5.32502 6.7505 5.32273H8.67896ZM11.8085 6.80089C11.9288 6.91941 11.9976 7.0805 12.0001 7.24935C11.9976 7.41819 11.9288 7.57929 11.8085 7.69781C11.6882 7.81634 11.5261 7.88278 11.3573 7.88279C11.1884 7.88279 11.0263 7.81635 10.906 7.69783C10.7857 7.57931 10.7169 7.41822 10.7144 7.24938C10.7169 7.08053 10.7857 6.91944 10.906 6.80091C11.0263 6.68238 11.1884 6.61594 11.3572 6.61593C11.5261 6.61593 11.6882 6.68237 11.8085 6.80089Z" fill="white"/>
</svg>
